X: 40349
T: Tom Byrne's
R: reel
M: 4/4
K: Cmajor
|:ADdc AdcA|GEED CDEG|ADdc AdcA|GECD ED D2|
ADdc AdcA|GEED C3 G|AGAB c/d/c ed|cAGE ED D2:|
|:fAdf eGce|dcAc GECE|fAdf eGce|A/B/A GE D3 e|
fAdf eGce|dcAc GECE|DAAG ABcA|G/A/G EC D3 z:|

